!!!!SEGMENT: pl-sa--7-a-i-7--001_anonim-polonez-no-2.krn
!!!id: 18xx:370
!!!COM: Anonim
!!!OTL: Polonez No 2
!!!PDT:
!!!SMS-siglum: PL-SA
!!!SMS-shelfmark: 7/A I 7
!!!NIFC-rismID: 1001071074
!!!URL-scan: http://bc.bdsandomierz.pl/dlibra/publication/1234/edition/1195/content
!!!ONB-nifc: Str. 4-5
!!!SMS-variant:
!!!SMS-altvar:
**kern	**kern
*part1	*part1
*staff2	*staff1
*I"Pianoforte	*
*I'P-no	*
*clefF4	*clefG2
*k[]	*k[]
*M3/4	*M3/4
=1	=1
*2\right	*
*tremolo	*
!	!LO:TX:a:t=P:problem:napis przed akoladą
!LO:TX:a:t=P:problem:mixed beam	!LO:TX:a:i:t=No. 2.
8GG/L	4dd 4b\
8G\	.
8GG/	8ddL 8b\
8G\	8ddJ 8b\
8GG/	16dd\LL
.	16ee\
8G\J	16dd\
.	16cc\JJ
*Xtremolo	*
=2	=2
8r	8b/L
!LO:TX:a:t=P:problem:mixed beam	!
8G\L	8g/J
8GG/	4.g/
8G\J	.
4GG/	.
.	8b/
=3	=3
8D\L	4.a/
8d\J	.
4D\	.
.	16a/LL
.	16f/JJ
4F\	16d/LL
.	16f/
.	16a/
.	16f/JJ
=4	=4
.	16qqB/LL
.	16qqd/JJ
8r	8.g/L
8G\	.
.	16f/Jk
4GG/	8g/L
.	8a 8f/
4r	8b 8g/
.	8ccJ 8a/
!!LO:LB:g=original
=5||	=5||
.	16qqg/LL
.	16qqb/JJ
16G\LL	4dd 4b\
16d\	.
16B\	.
16d\JJ	.
*rep	*
16G\LL	16cc#X\LL
16d\	16dd\
16B\	16cc#\
16d\JJ	16dd\JJ
*Xrep	*
*rep	*
16G\LL	16dd\LL
16d\	16ee\
16B\	16dd\
16d\JJ	16cc#\JJ
*Xrep	*
=6	=6
*rep	*
16G\LL	8b/L
16d\	.
16B\	8g/J
16d\JJ	.
*Xrep	*
*rep	*
16G\LL	4.g/
16d\	.
16B\	.
16d\JJ	.
*Xrep	*
*rep	*
16G\LL	.
16d\	.
16B\	8b/
16d\JJ	.
*Xrep	*
=7	=7
8r	8g#X/
4d 4c 4A\	4a/
.	.
*rep	*
4d 4c 4A\	16cc\LL
.	16ee\JJ
.	16dd/LL
.	16cc/
8ryy	16b/
.	16a/JJ
*Xrep	*
=8	=8
4d 4B 4G\	16g/LL
.	16f/
.	16b/
.	16a/JJ
8r	4a/
8D\	.
4GG/	8g/
.	8r
=9:|!|:	=9:|!|:
4D 4DD\	8.a/L
.	16f/Jk
8r	8d/L
!LO:TX:a:t=P:problem:mixed beam	!
8D\L	8d/J
8DD/	16d/LL
.	16f/
8D\J	16a/
.	16f/JJ
!!LO:LB:g=original
=10	=10
4G\ 4GG\	8.b/L
.	16g/Jk
8r	8d/L
!LO:TX:a:t=P:problem:mixed beam	!
8G\L	8d/J
8GG/	16d/LL
.	16g/
8G\J	16b/
.	16g/JJ
=11	=11
4C/	8.cc/L
.	16a/Jk
8r	8d/L
8D\L	8d/J
8F\	16d/LL
.	16a/
8D\J	16b/
.	16cc/JJ
=12	=12
4G\	8b\L
.	8cc\
8r	8cc#X\
8G\	8dd\J
4D\	8a/L
.	16b/L
.	16ccn/JJ
!	!LO:TX:a:t=P:problem:napis za kreską taktową
!	!LO:TX:a:t=al Segno.
!!LO:PB:g=original
=13||	=13||
*k[f#]	*k[f#]
*M3/4	*M3/4
!	!LO:TX:a:t=P:problem:napis przed akoladą
!	!LO:TX:a:i:t=Trio
.	16qqb/LL
.	16qqdd/JJ
!LO:TX:a:t=P:problem:mixed beam	!
8G/L	4gg\
8g>\J	.
!	!LO:TX:a:t=P:problem:trudny do zidentyfikowania znak nad nutą. Przyjęto mordent
4G/	16ggw>\LL
.	16ff#\
.	16gg\
.	16aa\JJ
!	!LO:TX:a:t=P:problem:trudny do zidentyfikowania znak nad nutą. Przyjęto mordent
4r	16bbW>\LL
.	16aa\
.	16bb\
.	16ccc\JJ
=14	=14
8r	(>32ccc#X\KLL
.	16.ddd\JJ)
!LO:TX:a:t=P:problem:mixed beam	!
8g>\L	(>32aa#X\KLL
.	16.bb\JJ)
.	8qqff#/
8G/	4.gg\
8g>\J	.
4G/	.
.	8bb\
=15	=15
8rc>	16bb\LL
.	16ccc\JJ
!LO:N:vis=8.	!
8a> 8f#> 8d>\	4aa\
*rep	*
!LO:TX:a:t=P:problem:znak powtórzenia na górnej pięciolinii	!
8rc>	.
8a> 8f#> 8d>\	16ccc\LL
.	16aa\JJ
8rc>	16gg\LL
.	16ff#\
8a> 8f#> 8d>\	16ee\
.	16dd\JJ
*Xrep	*
=16	=16
!	!LO:TX:a:t=P:problem:trudny do zidentyfikowania znak nad nutą. Przyjęto tryl
8rc>	16ggT>\LL
.	16ff#\
8b>\ 8g>\ 8d>\	16gg\
.	16aa\JJ
*rep	*
!LO:TX:a:t=P:problem:znak powtórzenia na górnej pięciolinii	!LO:TX:a:t=P:problem:trudny do zidentyfikowania znak nad nutą. Przyjęto mordent
8rc>	16bbW>\LL
.	16aa\
8b> 8g> 8d>\	16bb\
.	16ccc\JJ
8rc>	16ddd\LL
.	16bb\
8b> 8g> 8d>\	16ddd\
.	16bb\JJ
*Xrep	*
!!LO:LB:g=original
=17	=17
8rc>	32bb\KLL
.	16.ccc\JJ
8a> 8f#> 8d>\	(>16.gg#X\LL
.	32aa\JJk)
*rep	*
!LO:TX:a:t=P:problem:znak powtórzenia na górnej pięciolinii	!LO:TX:a:t=P:problem:trudny do zidentyfikowania znak nad nutą. Przyjęto mordent
8rc>	8aaw\L
8a> 8f#> 8d>\	16ccc\L
.	16aa\JJ
8rc>	(>16gg#\LL
.	16ff#\
8a> 8f#> 8d>\	16ee\
.	16dd\JJ)
*Xrep	*
=18	=18
8rA>	16ee\LL
.	16gg\
8d>\L	16ff#\
.	16aa\JJ
8f#>\	4aa\
8d>\J	.
4g>\	8gg\
.	8r
=19:|!|:	=19:|!|:
*2\right	*
*tremolo	*
8D\L	8.dd\L
8d\	.
.	16cccJk 16aa\
8D\	16cccLL 16aa\
.	16bb 16gg\
8d\	16bb 16gg\
.	16aaJJ 16ff#\
8D\	4aa 4ff#\
8d\J	.
=20	=20
!LO:TX:a:t=P:problem:mixed beam	!
8GG/L	8.dd\L
8G\	.
.	16bbJk 16dd\
8GG/	16bbLL 16dd\
.	16aa 16cc\
8G\	16aa 16cc\
.	16ggJJ 16b\
8GG/	4gg 4b\
8G\J	.
*Xtremolo	*
=21	=21
8r	8dd#X\
*tremolo	*
8E 8C\L	4ee\
8E 8C\	.
8E 8C\J	16cccLL 16aa\
.	16bbJJ 16gg\
*Xtremolo	*
8EL 8C\	8aaL 8cc\
8EJ 8C#\	8ggJ 8b\
!!LO:LB:g=original
=22	=22
4D\	16ff#\LL
.	16gg\J
.	8ggT>\J
8r	16gg\LL
.	16bb\J
8d\	8bbt>\J
4D\	4aa\
!	!LO:TX:a:t=P:problem:napis za kreską taktową
!	!LO:TX:a:t=W. D&colon; C&colon;
==	==
*-	*-
!!!system-decoration: {(s1,s2)}
!!!RDF**kern: > = above
!!!RDF**kern: < = below
!!!ENC: Tomasz Grochalski
!!!END: 2020-06-15
!!!EED: Mateusz Mrugas
!!!EST: 2020-11-28
